austria/municipalities/70619.svg

<?xml version="1.0" encoding="UTF-8"?>
<!DOCTYPE svg PUBLIC "-//W3C//DTD SVG 1.1//EN" "http://www.w3.org/Graphics/SVG/1.1/DTD/svg11.dtd">
<svg xmlns="http://www.w3.org/2000/svg" version="1.1" width="166px" height="192px" style="shape-rendering:geometricPrecision; text-rendering:geometricPrecision; image-rendering:optimizeQuality; fill-rule:evenodd; clip-rule:evenodd" xmlns:xlink="http://www.w3.org/1999/xlink">
<g><path style="opacity:1" fill="#030303" d="M -0.5,-0.5 C 54.8333,-0.5 110.167,-0.5 165.5,-0.5C 165.5,39.5 165.5,79.5 165.5,119.5C 157.045,159.621 132.712,183.621 92.5,191.5C 85.5,191.5 78.5,191.5 71.5,191.5C 30.925,182.925 6.92504,158.259 -0.5,117.5C -0.5,78.1667 -0.5,38.8333 -0.5,-0.5 Z"/></g>
<g><path style="opacity:1" fill="#35160f" d="M 146.5,4.5 C 104.003,3.50133 61.3366,3.16799 18.5,3.5C 39.0949,2.82797 60.4282,2.49464 82.5,2.5C 104.167,2.83333 125.833,3.16667 147.5,3.5C 147.376,4.10667 147.043,4.44001 146.5,4.5 Z"/></g>
<g><path style="opacity:1" fill="#d73023" d="M 18.5,3.5 C 61.3366,3.16799 104.003,3.50133 146.5,4.5C 125.557,28.1129 104.224,51.4462 82.5,74.5C 61.173,50.8391 39.8397,27.1724 18.5,3.5 Z"/></g>
<g><path style="opacity:1" fill="#423f3d" d="M 160.5,17.5 C 160.56,16.9569 160.893,16.6236 161.5,16.5C 162.83,48.3308 162.83,79.9974 161.5,111.5C 161.832,79.9956 161.498,48.6622 160.5,17.5 Z"/></g>
<g><path style="opacity:1" fill="#fdfdfd" d="M 3.5,17.5 C 25.8183,41.1541 47.8183,65.1541 69.5,89.5C 51.1487,109.35 32.982,129.35 15,149.5C 9.14852,139.613 5.48186,128.946 4,117.5C 3.50002,84.1683 3.33335,50.835 3.5,17.5 Z"/></g>
<g><path style="opacity:1" fill="#fefdfd" d="M 160.5,17.5 C 161.498,48.6622 161.832,79.9956 161.5,111.5C 161.193,125.253 157.36,137.919 150,149.5C 131.981,129.649 114.148,109.649 96.5,89.5C 117.484,65.1827 138.818,41.1827 160.5,17.5 Z"/></g>
<g><path style="opacity:1" fill="#253167" d="M 81.5,104.5 C 84.0562,105.543 86.2228,107.21 88,109.5C 104.686,128.018 121.186,146.685 137.5,165.5C 113.619,186.799 86.2852,192.633 55.5,183C 44.8407,179.007 35.5073,173.007 27.5,165C 45.7077,144.962 63.7077,124.796 81.5,104.5 Z"/></g>
<g><path style="opacity:1" fill="#fdfdfd" d="M -0.5,117.5 C 6.92504,158.259 30.925,182.925 71.5,191.5C 47.5,191.5 23.5,191.5 -0.5,191.5C -0.5,166.833 -0.5,142.167 -0.5,117.5 Z"/></g>
<g><path style="opacity:1" fill="#fdfdfd" d="M 165.5,119.5 C 165.5,143.5 165.5,167.5 165.5,191.5C 141.167,191.5 116.833,191.5 92.5,191.5C 132.712,183.621 157.045,159.621 165.5,119.5 Z"/></g>
</svg>

<svg xmlns="http://www.w3.org/2000/svg" width="166" height="192" style="shape-rendering:geometricPrecision;text-rendering:geometricPrecision;image-rendering:optimizeQuality;fill-rule:evenodd;clip-rule:evenodd"><path style="opacity:1" fill="#030303" d="M-.5-.5h166v120c-8.455 40.121-32.788 64.121-73 72h-21c-40.575-8.575-64.575-33.241-72-74V-.5z"/><path style="opacity:1" fill="#35160f" d="M146.5 4.5a4096.61 4096.61 0 0 0-128-1c20.595-.672 41.928-1.005 64-1l65 1c-.124.607-.457.94-1 1z"/><path style="opacity:1" fill="#d73023" d="M18.5 3.5a4096.61 4096.61 0 0 1 128 1 3144.54 3144.54 0 0 1-64 70c-21.327-23.66-42.66-47.328-64-71z"/><path style="opacity:1" fill="#423f3d" d="M160.5 17.5c.06-.543.393-.876 1-1 1.33 31.83 1.33 63.497 0 95 .332-31.504-.002-62.838-1-94z"/><path style="opacity:1" fill="#fdfdfd" d="M3.5 17.5a3394.931 3394.931 0 0 1 66 72 4610.086 4610.086 0 0 0-54.5 60c-5.851-9.887-9.518-20.554-11-32-.5-33.332-.667-66.665-.5-100z"/><path style="opacity:1" fill="#fefdfd" d="M160.5 17.5a2209.101 2209.101 0 0 1 1 94c-.307 13.753-4.14 26.419-11.5 38a4532.788 4532.788 0 0 1-53.5-60 3279.455 3279.455 0 0 1 64-72z"/><path style="opacity:1" fill="#253167" d="M81.5 104.5c2.556 1.043 4.723 2.71 6.5 5a3916.798 3916.798 0 0 1 49.5 56c-23.881 21.299-51.215 27.133-82 17.5-10.66-3.993-19.993-9.993-28-18a4550.731 4550.731 0 0 0 54-60.5z"/><path style="opacity:1" fill="#fdfdfd" d="M-.5 117.5c7.425 40.759 31.425 65.425 72 74h-72v-74zM165.5 119.5v72h-73c40.212-7.879 64.545-31.879 73-72z"/></svg>
